X:1
T:Gaudete, 86.86.86.84
T:Samuel Smith (1821-1917)
T:Gaudete, 86.86.86.84
T:Public Domain
C:Samuel Smith (1821-1917)
Z:Public Domain
%%score ( 1 2 ) ( 3 4 )
L:1/8
M:4/4
K:C
V:1 treble 
V:2 treble 
V:3 bass 
V:4 bass 
V:1
!f! E2 | D2 [CF]2 [CE]2 CD | G2 z F [CE]2 [CG]2 | [FA]2 [FB]2 [Gc]2 [Ad]2 | G6 [DG]2 | %5
 [D^F]2 FE [DB]2 [DG]2 | [D^F]2 FE [DB]2 GF | [Ed]2 cB A,B, [CA]2 | [B,G]6 ||"^Refrain" [FG]2!ff! | %10
 [EG]6 [Gc]2 | c4 B2 [FG]2 | [FG]6 [Gd]2 | d4 c2 G2 | [FA]2 [GA]2 F2 G[Ae] | [Dd]6 [Gc]2 | %16
 [FB]2 [Gc]2 [FA]2 [DG]2 | F2 [DG]2 [CE]2 FE | D2 E2 [FB]4 | [Ec]6 |] %20
V:2
 E2 | D2 x2 A2 x2 | E3 B,2 x3 | x8 | G6 x2 | x2 c2 x4 | x2 c2 x d2 x | x2 E2 A2 x2 | x6 || x2 | %10
 x8 | F6 x2 | x8 | G6 G2 | x4 f3 x | x8 | x8 | F2 x2 A2 x2 | G4 x4 | x6 |] %20
V:3
 C2 | B,2 [A,C]2 G,2 A,B, | [E,C]2 [D,G,]2 [C,G,]2 [E,C]2 | [F,C]2 [D,D]2 [E,C]2 [F,C]2 | %4
 C2 B,A, B,2 B,2 | [A,C]2 [D,A,]2 [G,B,]2 B,2 | [A,C]2 [D,A,]2 [G,B,]2 [B,,B,]2 | %7
 [C,B,]2 A,G, [D,^F,]2 [D,F,]2 | [G,,G,]6 || B,2 | z2 C,2 E,2 [C,E]2 | [G,D]6 B,2 | %12
 z2 G,2 B,2 [G,F]2 | [CE]6 [E,C]2 | [F,C]2 [E,^C]2 D,2 E,[F,=C] | [G,B,]6 [C,E]2 | %16
 [D,D]2 [E,C]2 [F,C]2 [G,B,]2 | [A,C]2 [B,D]2 [CE]2 [F,C]2 | B,2 C2 [G,D]4 | [C,C]6 |] %20
V:4
 C2 | B,2 G,2 F,2 x2 | x8 | x8 | G,6 B,2 | x6 B,2 | x8 | x2 C,2 x4 | x6 || x2 | C6 x2 | x8 | %12
 D6 x2 | x8 | x4 D3 x | x8 | x8 | x8 | G,4 x4 | x6 |] %20

